(GCode generated by: DrawingBotV3 Free 1.6.22 Stable)
(Time: 2025-11-15 at 18:42:48 CET)
G21 (programming in millimeters, mm)
G90 (programming in absolute positioning)
G28 (auto homing)
G1 F8000 (set speed)
G0 Z1


G0 X130.456 Y236.007
G1 Z0

G1 X130.626 Y236.346
G1 X128.762 Y227.367
G1 X122.155 Y217.201
G1 X118.427 Y216.863
G1 X112.328 Y220.082
G1 X116.902 Y206.697
G1 X107.076 Y195.346
G1 X91.997 Y185.689
G1 X83.018 Y173.998
G1 X79.290 Y174.337
G1 X71.497 Y179.250
G1 X70.989 Y174.337
G1 X76.071 Y166.882
G1 X79.968 Y162.986
G1 X76.918 Y143.671
G1 X79.968 Y123.849
G1 X82.340 Y119.274
G1 X80.646 Y113.853
G1 X67.600 Y107.415
G1 X60.145 Y106.059
G1 X61.162 Y104.873
G1 X71.836 Y98.774
G1 X90.472 Y99.452
G1 X97.927 Y92.844
G1 X99.791 Y91.489
G1 X102.671 Y88.778
G1 X106.059 Y82.509
G1 X101.485 Y77.596
G1 X93.183 Y76.749
G1 X94.369 Y71.666
G1 X105.551 Y62.348
G1 X116.394 Y66.414
G1 X120.969 Y69.972
G1 X130.795 Y73.699
G1 X140.622 Y88.270
G1 X146.382 Y94.200
G1 X143.502 Y97.419
G1 X142.316 Y102.840
G1 X139.605 Y104.873
G1 X135.878 Y106.398
G1 X129.270 Y97.080
G1 X121.307 Y102.332
G1 X115.886 Y113.175
G1 X126.560 Y127.407
G1 X128.423 Y143.333
G1 X117.919 Y132.489
G1 X107.245 Y127.915
G1 X102.163 Y137.911
G1 X101.993 Y120.291
G1 X104.196 Y115.886
G1 X104.535 Y113.514
G1 X104.704 Y113.853
G0 Z1

G0 X108.431 Y105.551
G1 Z0

G1 X108.601 Y105.890
G1 X111.311 Y101.315
G1 X106.737 Y109.278
G1 X107.415 Y106.229
G1 X108.262 Y107.076
G1 X106.737 Y109.278
G1 X101.654 Y122.155
G1 X102.501 Y134.861
G1 X106.568 Y130.626
G1 X106.568 Y128.762
G1 X109.956 Y128.084
G1 X123.849 Y137.403
G0 Z1

G0 X98.266 Y154.684
G1 Z0

G1 X98.435 Y155.023
G1 X102.501 Y145.027
G1 X103.179 Y138.419
G1 X103.010 Y138.758
G1 X100.638 Y151.804
G1 X97.588 Y154.006
G1 X96.910 Y150.110
G1 X92.167 Y146.552
G1 X88.778 Y158.750
G1 X89.286 Y163.494
G1 X89.795 Y170.949
G1 X96.233 Y182.469
G1 X100.129 Y186.027
G1 X100.129 Y185.689
G1 X91.658 Y176.031
G1 X90.811 Y170.440
G1 X88.778 Y166.713
G1 X90.303 Y150.618
G1 X91.828 Y147.738
G1 X93.861 Y146.890
G1 X96.233 Y151.126
G1 X94.200 Y157.395
G1 X100.638 Y162.308
G1 X104.365 Y163.155
G1 X109.109 Y169.932
G1 X102.501 Y168.916
G1 X98.435 Y170.949
G1 X98.774 Y171.796
G1 X107.923 Y188.908
G1 X118.766 Y200.428
G1 X127.407 Y214.660
G1 X130.965 Y227.197
G1 X132.320 Y238.379
G1 X130.965 Y239.565
G1 X130.795 Y237.363
G1 X130.795 Y238.210
G0 Z1


G0 Z1
G0 X0 Y0

(Distance Moved: 1134.977 mm)
(Distance Moved - Pen Up: 309.636 mm)
(Distance Moved - Pen Down: 825.340 mm)
(Points Plotted: 100 points)
(Pen Lifted: 4 times)
(Pen Dropped: 3 times)
(Min X: 60.145 Max X: 146.382)
(Min Y: 62.348 Max Y: 239.565)
